!!!COM: Ernest Chausson
!!!CNT: Francais
!!!TXO: Francais
!!!OTL: se/re/nade
!!!OPS: Op. 13
!!!ONM: No. 2
!!!LYR: Jean Lahor
!!!ENC: Jacob Pegg
!!!YOR: 20 Songs for Voice and Piano, International Music Company, New York City, January, 1952
!!!ODT: 1887/
!!NB: Vocal melody and text only encoded.
**kern	**silbe
*clef G2	*
*k[]	*
*M3/4	*
=6	=6
{4e	{Tes
4f	grands
4g	yeux
=7	=7
2.d-	doux
=8	=8
4.f	sem-
4e-	-blent
8d-	des
=9	=9
2b-	i^-
8b-	-les
8dd-	Qui
=10	=10
2c	na-
4b-	-gent
=11	=11
8a-	dans
8g	un
4f	lac
(8e-	d'a
8d-)	||
=12	=12
[2c	-zur;
8c]}	|}
8r	.
=13	=13
2.r	.
=14	=14
{8d-	{Aux
8d-	frai^-
4e-	-cheurs
8f-	de
8g-	tes
=15	=15
2a-	yeux
4e-	tran-
=16	=16
(2g-	-quil-
4d)	|
=17	=17
2d-}	-les}
4r	.
=18	=18
{4c	{Fais~
4c	~moi
4c	tran-
=19	=19
2.a-	-quile
=20	=20
*M4/4	*
2g-	Et
4cc-	fais~
4cc-	~moi
=21	=21
*M3/4	*
[2.a	pur.
=22	=22
4a]}	|}
4r	.
4r	.
=23	=23
*M4/4	*
1r	.
=24	=24
*M3/4	*
{4f	{Ton
2f	corps
=25	=25
4g-	a
8g-	l'a-
8g-	-dor-
8f-	-able
8e--	en-
=26	=26
4fn	-fan-
8fn	-ce
8r	.
4a-	Des
=27	=27
4cc-	clairs
4dd-	pa-
4ddn	-ra-
=28	=28
4.dd	-dis
4ccn	de
8b-	ja-
=29	=29
[2.b-	-dis;
=30	=30
4b-]}	|}
4r	.
4r	.
=31	=31
{8e-	{En-
8e-	-ve-
4f	-lop-
4g-	-pe~
=32	=32
2d	~moi
8f	de
8b-	si-
=33	=33
(2b-	-len-
4a)	|
=34	=34
2f}	-ce}
4r	.
=35	=35
4r	.
{4d-	{Du
4c-	si-
=36	=36
4B-	-lence
4B-	ar-
4B-	-gen-
=37	=37
2e-	-te/
4c-	des
=38	=38
[2B-	lys-
8B-]}	|}
8r	.
=39	=39
4r	.
4r	.
{8B-	{A-
8B-	-lan-
=40	=40
4d	-gui
8f	par
8f	les
8g	yeux
8g	tran-
=41	=41
4.a	-quil-
8a	-les
8cc	Des
8b-	e/-
=42	=42
4.b-	-toi-
8g-	-les
12g-	ca-
12f	-res-
12e-	-sant
=43	=43
[2.dd-	l'air,
=44	=44
4dd-_	|
8dd-]}	|}
8r	.
4r	.
=45	=45
4r	.
{2ff	{J'ai
=46	=46
2ee-	tant
4dd-	re^-
=47	=47
2.een	-ve/
=48	=48
4cc	la
4g	paix
4e	des
=49	=49
(2f	i^-
4d-)	|
=50	=50
2c	-les,
8e	Sous
8e	un
=51	=51
2.f	soir
=52	=52
8d-	fris-
8d-	-son-
4d-	-nant
4d-	et
=53	=53
[2.een	clair.
=54	=54
4een_	|
8een]}	|}
8r	.
4r	.
*-	*-
